X:1
T:[ID 2-78]
T:[ID 2-78]
T:Bezeichnung standardisiert: Menuet [mit Trio] Men\"uet Con Trio 2.
T:Urheber unbekannt Datum in der hier transkribierten schriftlichen Quelle: 1767
C:Urheber unbekannt
C:Datum in der hier transkribierten schriftlichen Quelle: 1767
L:1/8
M:3/4
K:A
V:1 treble 
V:1
 a2 a2 a2 | (3bag{g} a4 | c2 c2 c2 | (3dcB{B} c4 | cecA E2 | cecA E2 | d2 fedc |{c} B6 :: %8
 E2 e2 e2 | edcBAG | F2 f2 f2 | fedcBA | G2 g2 g2 | gabg a2 | (3fed c2 B2 |{B} A6 :| %16
[M:3/4]"^Trio" !fermata!E4 F2 | E2 FG A2 | d2 c2 B2 | (3cBA (3BAG A2 | d2 c2 B2 | a2 g2 f2 | %22
 gbgef^d |{^d} e6 :: e4 dc | d2 c2 B2 | e4 dc | d2 c2 B2 | E4 F2 | E2 FG A2 | EdcBAG |{G} A6 :| %32

